X:1
T:Salt Creek
L:1/8
M:4/4
I:linebreak $
K:D
V:1 treble nm="Voice" snm="Voice"
V:1
|: [Ae]2 [Ae][Ae] [Ae]2 AB | cABc"D" [Fd]4 |"G" BA G2 BA G2 | BAGF E2 EF |$ %4
[M:4/4] [Ae][Ae] [Ae]2 AB | cABc [Fd]4 | e a2 b afed | cABc [Ae]4 ::$ [ca]2 [ca][ca] [ca]2 ef | %9
 aegf ef e2 | [Bg]2 [Bg][Bg] [Bg]2 de | g2 ga gf e2 |$ [ca]2 [ca][ca] [ca]2 ef | aegf ef e2 | %14
 gagf efed | cABc [Ae]4 :| %16
